elementary-xfce/mimetypes/32/application-x-partial-download.svg

<?xml version="1.0" encoding="UTF-8" standalone="no"?>
<svg
   height="32"
   id="svg11300"
   style="display:inline;enable-background:new"
   version="1.0"
   viewBox="0 0 32 32"
   width="32"
   xmlns:xlink="http://www.w3.org/1999/xlink"
   xmlns="http://www.w3.org/2000/svg"
   xmlns:svg="http://www.w3.org/2000/svg"
   xmlns:rdf="http://www.w3.org/1999/02/22-rdf-syntax-ns#"
   xmlns:cc="http://creativecommons.org/ns#"
   xmlns:dc="http://purl.org/dc/elements/1.1/">
  <metadata
     id="metadata155">
    <rdf:RDF>
      <cc:Work
         rdf:about="">
        <dc:format>image/svg+xml</dc:format>
        <dc:type
           rdf:resource="http://purl.org/dc/dcmitype/StillImage" />
        <dc:title>elementary Icon Template</dc:title>
      </cc:Work>
    </rdf:RDF>
  </metadata>
  <title
     id="title4162">elementary Icon Template</title>
  <defs
     id="defs3">
    <linearGradient
       id="linearGradient10457">
      <stop
         id="stop10453"
         offset="0"
         style="stop-color:#000000;stop-opacity:1;" />
      <stop
         id="stop10455"
         offset="1"
         style="stop-color:#000000;stop-opacity:0;" />
    </linearGradient>
    <linearGradient
       id="linearGradient3600">
      <stop
         id="stop3602"
         offset="0"
         style="stop-color:#f4f4f4;stop-opacity:1" />
      <stop
         id="stop3604"
         offset="1"
         style="stop-color:#dbdbdb;stop-opacity:1" />
    </linearGradient>
    <linearGradient
       id="linearGradient5048">
      <stop
         id="stop5050"
         offset="0"
         style="stop-color:#000000;stop-opacity:0" />
      <stop
         id="stop5056"
         offset="0.5"
         style="stop-color:#000000;stop-opacity:1" />
      <stop
         id="stop5052"
         offset="1"
         style="stop-color:#000000;stop-opacity:0" />
    </linearGradient>
    <linearGradient
       id="linearGradient3977-5">
      <stop
         id="stop3979-6"
         offset="0"
         style="stop-color:#ffffff;stop-opacity:1" />
      <stop
         id="stop3981-2"
         offset="0"
         style="stop-color:#ffffff;stop-opacity:0.23529412" />
      <stop
         id="stop3983-9"
         offset="0.99999994"
         style="stop-color:#ffffff;stop-opacity:0.15686275" />
      <stop
         id="stop3985-1"
         offset="1"
         style="stop-color:#ffffff;stop-opacity:0.39215687" />
    </linearGradient>
    <linearGradient
       gradientTransform="matrix(0.56756757,0,0,0.72972971,82.378409,175.4847)"
       gradientUnits="userSpaceOnUse"
       xlink:href="#linearGradient3977-5"
       id="linearGradient3013-9"
       x1="23.99999"
       x2="23.99999"
       y1="6.1851754"
       y2="41.814808" />
    <linearGradient
       gradientTransform="matrix(0.62856997,0,0,0.60839392,80.914347,177.46342)"
       gradientUnits="userSpaceOnUse"
       xlink:href="#linearGradient3600"
       id="linearGradient3016-3"
       x1="25.132275"
       x2="25.132275"
       y1="0.98520643"
       y2="47.013336" />
    <linearGradient
       gradientTransform="matrix(0.04576928,0,0,0.00823529,79.457703,203.97876)"
       gradientUnits="userSpaceOnUse"
       xlink:href="#linearGradient5048"
       id="linearGradient3027-6"
       x1="302.85715"
       x2="302.85715"
       y1="366.64789"
       y2="609.50507" />
    <linearGradient
       id="linearGradient3104-6">
      <stop
         id="stop3106-3"
         offset="0"
         style="stop-color:#000000;stop-opacity:0.31782946" />
      <stop
         id="stop3108-9"
         offset="1"
         style="stop-color:#000000;stop-opacity:0.24031007" />
    </linearGradient>
    <linearGradient
       gradientTransform="matrix(0.53064141,0,0,0.58970049,119.26963,176.20629)"
       gradientUnits="userSpaceOnUse"
       xlink:href="#linearGradient3104-6"
       id="linearGradient3148"
       x1="-51.786404"
       x2="-51.786404"
       y1="50.786446"
       y2="2.9062471" />
    <radialGradient
       cx="605.71429"
       cy="486.64789"
       fx="605.71429"
       fy="486.64789"
       gradientTransform="matrix(-0.01253114,0,0,0.00823569,92.55202,203.98033)"
       gradientUnits="userSpaceOnUse"
       xlink:href="#linearGradient10457"
       id="radialGradient7070"
       r="117.14286" />
    <radialGradient
       cx="605.71429"
       cy="486.64789"
       fx="605.71429"
       fy="486.64789"
       gradientTransform="matrix(0.01253114,0,0,0.00823569,99.44798,203.98035)"
       gradientUnits="userSpaceOnUse"
       xlink:href="#linearGradient10457"
       id="radialGradient7074"
       r="117.14286" />
  </defs>
  <g
     id="g153"
     transform="translate(-80,-177.99819)">
    <rect
       height="2"
       id="rect2879-2"
       style="display:inline;overflow:visible;visibility:visible;opacity:0.15;fill:url(#linearGradient3027-6);fill-opacity:1;fill-rule:nonzero;stroke:none;stroke-width:1;marker:none"
       width="22.100021"
       x="84.95002"
       y="206.99821" />
    <path
       d="M 85.000027,178.99821 C 90.041343,178.99821 107,179 107,179 l 3e-5,27.99821 H 85.000027 Z"
       id="path4160-3-8"
       style="display:inline;fill:url(#linearGradient3016-3);fill-opacity:1;stroke:none" />
    <path
       d="M 106.50003,206.49821 H 85.500027 v -27 h 21.000003 z"
       id="rect6741-1-7"
       style="fill:none;stroke:url(#linearGradient3013-9);stroke-width:1;stroke-linecap:round;stroke-linejoin:miter;stroke-miterlimit:4;stroke-dasharray:none;stroke-dashoffset:0;stroke-opacity:1" />
    <path
       d="m 84.499988,178.49815 c 5.27048,0 23.000052,0.002 23.000052,0.002 l 3e-5,28.99812 H 84.499988 v -28.99996 z"
       id="path4160-6-1"
       style="display:inline;fill:none;stroke:url(#linearGradient3148);stroke-width:0.999922;stroke-linecap:butt;stroke-linejoin:round;stroke-miterlimit:4;stroke-dasharray:none;stroke-dashoffset:0;stroke-opacity:1" />
    <path
       id="path26667"
       transform="translate(80,177.99819)"
       d="m 15,13.001953 v 2 h 2 v -2 z m 2,2 v 2 h -2 v -2 h -2 v 2 H 9 l 7,9 7,-9 h -4 v -2 z"
       style="color:#bebebe;display:inline;overflow:visible;visibility:visible;fill:#68b723;fill-opacity:1;fill-rule:nonzero;stroke:none;stroke-width:1;marker:none;enable-background:accumulate" />
    <path
       d="m 85,207 v 1.99998 c -0.64533,0.004 -1.56008,-0.44811 -1.56008,-1.00013 C 83.43992,207.44782 84.16005,207 85,207 Z"
       id="path7068"
       style="display:inline;overflow:visible;visibility:visible;opacity:0.15;fill:url(#radialGradient7070);fill-opacity:1;fill-rule:nonzero;stroke:none;stroke-width:1;marker:none" />
    <path
       d="M 107,207.00002 V 209 c 0.64533,0.004 1.56008,-0.44811 1.56008,-1.00013 0,-0.55203 -0.72013,-0.99985 -1.56008,-0.99985 z"
       id="path7072"
       style="display:inline;overflow:visible;visibility:visible;opacity:0.15;fill:url(#radialGradient7074);fill-opacity:1;fill-rule:nonzero;stroke:none;stroke-width:1;marker:none" />
  </g>
  <path
     id="rect859"
     d="m 13,9.0019531 v 1.9999999 h 2 V 9.0019531 Z m 2,1.9999999 v 2 h 2 2 v -2 -1.9999999 h -2 v 1.9999999 z m 0,2 h -2 v 2 h 2 z"
     style="opacity:0.6;vector-effect:none;fill:#68b723;fill-opacity:1;stroke:none;stroke-width:2;stroke-opacity:1;marker:none" />
  <path
     id="rect869"
     d="m 15,5.0019531 v 2 h 2 v -2 z m 2,2 v 2 h 2 v -2 z m 0,2 h -2 v 1.9999999 h 2 z m -2,0 v -2 h -2 v 2 z"
     style="opacity:0.2;vector-effect:none;fill:#68b723;fill-opacity:1;stroke:none;stroke-width:2;stroke-opacity:1;marker:none" />
</svg>

<?xml version="1.0" encoding="UTF-8" standalone="no"?>
<svg
   xmlns:dc="http://purl.org/dc/elements/1.1/"
   xmlns:cc="http://creativecommons.org/ns#"
   xmlns:rdf="http://www.w3.org/1999/02/22-rdf-syntax-ns#"
   xmlns:svg="http://www.w3.org/2000/svg"
   xmlns="http://www.w3.org/2000/svg"
   xmlns:xlink="http://www.w3.org/1999/xlink"
   height="32.001812"
   id="svg11300"
   style="display:inline;enable-background:new"
   version="1.0"
   viewBox="0 0 32 32.001812"
   width="32">
  <metadata
     id="metadata155">
    <rdf:RDF>
      <cc:Work
         rdf:about="">
        <dc:format>image/svg+xml</dc:format>
        <dc:type
           rdf:resource="http://purl.org/dc/dcmitype/StillImage" />
        <dc:title>elementary Icon Template</dc:title>
      </cc:Work>
    </rdf:RDF>
  </metadata>
  <title
     id="title4162">elementary Icon Template</title>
  <defs
     id="defs3">
    <linearGradient
       id="linearGradient10457">
      <stop
         id="stop10453"
         offset="0"
         style="stop-color:#000000;stop-opacity:1;" />
      <stop
         id="stop10455"
         offset="1"
         style="stop-color:#000000;stop-opacity:0;" />
    </linearGradient>
    <linearGradient
       id="linearGradient3600">
      <stop
         id="stop3602"
         offset="0"
         style="stop-color:#f4f4f4;stop-opacity:1" />
      <stop
         id="stop3604"
         offset="1"
         style="stop-color:#dbdbdb;stop-opacity:1" />
    </linearGradient>
    <linearGradient
       id="linearGradient5048">
      <stop
         id="stop5050"
         offset="0"
         style="stop-color:#000000;stop-opacity:0" />
      <stop
         id="stop5056"
         offset="0.5"
         style="stop-color:#000000;stop-opacity:1" />
      <stop
         id="stop5052"
         offset="1"
         style="stop-color:#000000;stop-opacity:0" />
    </linearGradient>
    <linearGradient
       id="linearGradient3977-5">
      <stop
         id="stop3979-6"
         offset="0"
         style="stop-color:#ffffff;stop-opacity:1" />
      <stop
         id="stop3981-2"
         offset="0"
         style="stop-color:#ffffff;stop-opacity:0.23529412" />
      <stop
         id="stop3983-9"
         offset="0.99999994"
         style="stop-color:#ffffff;stop-opacity:0.15686275" />
      <stop
         id="stop3985-1"
         offset="1"
         style="stop-color:#ffffff;stop-opacity:0.39215687" />
    </linearGradient>
    <linearGradient
       gradientTransform="matrix(0.56756757,0,0,0.72972971,82.378409,175.4847)"
       gradientUnits="userSpaceOnUse"
       xlink:href="#linearGradient3977-5"
       id="linearGradient3013-9"
       x1="23.99999"
       x2="23.99999"
       y1="6.1851754"
       y2="41.814808" />
    <linearGradient
       gradientTransform="matrix(0.62856997,0,0,0.60839392,80.914347,177.46342)"
       gradientUnits="userSpaceOnUse"
       xlink:href="#linearGradient3600"
       id="linearGradient3016-3"
       x1="25.132275"
       x2="25.132275"
       y1="0.98520643"
       y2="47.013336" />
    <linearGradient
       gradientTransform="matrix(0.04576928,0,0,0.00823529,79.457703,203.97876)"
       gradientUnits="userSpaceOnUse"
       xlink:href="#linearGradient5048"
       id="linearGradient3027-6"
       x1="302.85715"
       x2="302.85715"
       y1="366.64789"
       y2="609.50507" />
    <linearGradient
       id="linearGradient3104-6">
      <stop
         id="stop3106-3"
         offset="0"
         style="stop-color:#000000;stop-opacity:0.31782946" />
      <stop
         id="stop3108-9"
         offset="1"
         style="stop-color:#000000;stop-opacity:0.24031007" />
    </linearGradient>
    <linearGradient
       gradientTransform="matrix(0.53064141,0,0,0.58970049,119.26963,176.20629)"
       gradientUnits="userSpaceOnUse"
       xlink:href="#linearGradient3104-6"
       id="linearGradient3148"
       x1="-51.786404"
       x2="-51.786404"
       y1="50.786446"
       y2="2.9062471" />
    <radialGradient
       cx="605.71429"
       cy="486.64789"
       fx="605.71429"
       fy="486.64789"
       gradientTransform="matrix(-0.01253114,0,0,0.00823569,92.55202,203.98033)"
       gradientUnits="userSpaceOnUse"
       xlink:href="#linearGradient10457"
       id="radialGradient7070"
       r="117.14286" />
    <radialGradient
       cx="605.71429"
       cy="486.64789"
       fx="605.71429"
       fy="486.64789"
       gradientTransform="matrix(0.01253114,0,0,0.00823569,99.44798,203.98035)"
       gradientUnits="userSpaceOnUse"
       xlink:href="#linearGradient10457"
       id="radialGradient7074"
       r="117.14286" />
  </defs>
  <g
     id="g153"
     transform="translate(-80,-177.99819)">
    <rect
       height="2"
       id="rect2879-2"
       style="display:inline;overflow:visible;visibility:visible;opacity:0.15;fill:url(#linearGradient3027-6);fill-opacity:1;fill-rule:nonzero;stroke:none;stroke-width:1;marker:none"
       width="22.100021"
       x="84.95002"
       y="206.99821" />
    <path
       d="M 85.000027,178.99821 C 90.041343,178.99821 107,179 107,179 l 3e-5,27.99821 H 85.000027 Z"
       id="path4160-3-8"
       style="display:inline;fill:url(#linearGradient3016-3);fill-opacity:1;stroke:none" />
    <path
       d="M 106.50003,206.49821 H 85.500027 v -27 h 21.000003 z"
       id="rect6741-1-7"
       style="fill:none;stroke:url(#linearGradient3013-9);stroke-width:1;stroke-linecap:round;stroke-linejoin:miter;stroke-miterlimit:4;stroke-dasharray:none;stroke-dashoffset:0;stroke-opacity:1" />
    <path
       d="m 84.499988,178.49815 c 5.27048,0 23.000052,0.002 23.000052,0.002 l 3e-5,28.99812 H 84.499988 v -28.99996 z"
       id="path4160-6-1"
       style="display:inline;fill:none;stroke:url(#linearGradient3148);stroke-width:0.9999218;stroke-linecap:butt;stroke-linejoin:round;stroke-miterlimit:4;stroke-dasharray:none;stroke-dashoffset:0;stroke-opacity:1" />
    <path
       id="path26667"
       transform="translate(80,177.99819)"
       d="M 15 13.001953 L 15 15.001953 L 17 15.001953 L 17 13.001953 L 15 13.001953 z M 17 15.001953 L 17 17.001953 L 15 17.001953 L 15 15.001953 L 13 15.001953 L 13 17.001953 L 9 17.001953 L 16 26.001953 L 23 17.001953 L 19 17.001953 L 19 15.001953 L 17 15.001953 z "
       style="color:#bebebe;display:inline;overflow:visible;visibility:visible;fill:#68b723;fill-opacity:1;fill-rule:nonzero;stroke:none;stroke-width:1;marker:none;enable-background:accumulate" />
    <path
       d="m 85,207 v 1.99998 c -0.64533,0.004 -1.56008,-0.44811 -1.56008,-1.00013 C 83.43992,207.44782 84.16005,207 85,207 Z"
       id="path7068"
       style="display:inline;overflow:visible;visibility:visible;opacity:0.15;fill:url(#radialGradient7070);fill-opacity:1;fill-rule:nonzero;stroke:none;stroke-width:1;marker:none" />
    <path
       d="M 107,207.00002 V 209 c 0.64533,0.004 1.56008,-0.44811 1.56008,-1.00013 0,-0.55203 -0.72013,-0.99985 -1.56008,-0.99985 z"
       id="path7072"
       style="display:inline;overflow:visible;visibility:visible;opacity:0.15;fill:url(#radialGradient7074);fill-opacity:1;fill-rule:nonzero;stroke:none;stroke-width:1;marker:none" />
  </g>
  <path
     id="rect859"
     d="M 13 9.0019531 L 13 11.001953 L 15 11.001953 L 15 9.0019531 L 13 9.0019531 z M 15 11.001953 L 15 13.001953 L 17 13.001953 L 19 13.001953 L 19 11.001953 L 19 9.0019531 L 17 9.0019531 L 17 11.001953 L 15 11.001953 z M 15 13.001953 L 13 13.001953 L 13 15.001953 L 15 15.001953 L 15 13.001953 z "
     style="opacity:0.6;vector-effect:none;fill:#68b723;fill-opacity:1;stroke:none;stroke-width:2;stroke-opacity:1;marker:none" />
  <path
     id="rect869"
     d="M 15 5.0019531 L 15 7.0019531 L 17 7.0019531 L 17 5.0019531 L 15 5.0019531 z M 17 7.0019531 L 17 9.0019531 L 19 9.0019531 L 19 7.0019531 L 17 7.0019531 z M 17 9.0019531 L 15 9.0019531 L 15 11.001953 L 17 11.001953 L 17 9.0019531 z M 15 9.0019531 L 15 7.0019531 L 13 7.0019531 L 13 9.0019531 L 15 9.0019531 z "
     style="opacity:0.2;vector-effect:none;fill:#68b723;fill-opacity:1;stroke:none;stroke-width:2;stroke-opacity:1;marker:none" />
</svg>
